X:32
T: Heimkehr des Ehemannes
N: Q0011C
O: Suedosteuropa, Jugoslawien, Gottschee, Verdreng
N: Grundton in der zweigestrichenen Oktave, 2. und 4. Zeile = Refrain
N: auf sinnfreie Silben.
R: Ballade, Ehe, Heimkehr
M: 2/2
L: 1/8
K: D
A,2 | D2D2DDEE | DDB,2A,4 |
D4E4 | F6
D2 | F2F2FFAA | AAE2D4 |
F4E4 | DDCCD2

@@@ Tune index: 661
